X:1
T:My Bonny, Bonny Boy
M:3/4
L:1/4
K:F
 D| F E D| d c d| A3/2 G/2A/2 G/2| F- E D| F F F| G F G| A3-| A z A|\
 c d c| c- A F| d c d| A- G F/2F/2| G d d| c D E| F3-| F z||
